X: 4304
T: The LIFE BOAT
%R: hornpipe, reel
B: James Kerr "Merry Melodies" v.4 p.32 #304
Z: 2016 John Chambers <jc:trillian.mit.edu>
M: C|
L: 1/8
K: F
|:\
ABcd c2f2 | ABcd c2f2 |\
[1,3 efgf edcd | efgf edcB :|\
[2,4 egfe dfed | c2e2 c2z2 |:\
g^fga g2c2 | g^fga bgeg |
=fefg f2c2 | FAcf afcA |\
g^fga g2c2 | g^fga bgeg |\
=fagf edc=B |[1 c2e2 c2z2 :|\
[2 cded cBAG |]

%%sep 1 1 500
%%sep 1 1 500

